X:1
T:[ID 1-66a]
T:[ID 1-66a]
T:Bezeichnung standardisiert: Vexier-Menuet Fetz Zier Menuet
T:Urheber unbekannt Datum in der hier transkribierten schriftlichen Quelle: 1792
C:Urheber unbekannt
C:Datum in der hier transkribierten schriftlichen Quelle: 1792
L:1/8
M:3/4
K:Dmin
V:1 treble 
V:1
 defgag | Tf2 ef d2 | _bagfed | T^c2 Bc A2 | defgag | Tf2 ef d2 |"^1)" egfed^c | d6 :: %8
 ag/a/ _b2 a2 | gf/e/ fcAF | ag/a/ _b2 a2 | gf/e/ f2 f2 :| %12

